X: 35272
T: Rose In The Heather, The
R: jig
M: 6/8
K: Dmajor
|:D2F EDB,|DFA BAF|ABd e/f/ge|fdB AFE|
FAF EFE|DFA ABd|edB AFE|1 EDC D2A,:|2 EDC Deg||
|:fdB ABd|faa afd|~g3 fed|Bcd efg|
fdB ABd|faa afa|baf gfe|1 fdc d2e:|2 fdB AFE||

